X:211
T:New Scotch Sett No.1. Le4.211
M:6/8
L:1/8
Q:3/8=90
B:L.Leadley MS#4 c1850
Z:Village Music Project 2016 Steve Mansfield
K:C
e2e e2e | (g3 e2)c | {e}d2c d2e | c3- c2 g |
(fd).g (ec).g | (fd).g (ec).G | Afd {c}BAB | c2e c2 ||
e | e2e e2e | 'g3 e2c | {e}d2c d2e | c3- cde |
G3 GAB | c3 cde | (fd).g (ec).g | d3- d2 ||
d | b3 bag | (g3 ^f2)g | a^ga ^f2d | g3- g2a |
b3 bag | d'c'b aag | ^fag fga | g3 g^f=f ||
e2e gec | dBG c2e | fga gec | fga gab |
c'2c' bag | a2a gfe | fag gec | g3- g^f=f !D.C.! |]

